X:3025
T:Cream Pot, The
T:Kern Staff
R:Jig
C:Trad.
O:England
Z:Paul Hardy's Session Tunebook 2015 (see www.paulhardy.net). Creative Commons cc by-nc-sa licenced.
M:6/8
L:1/8
Q:3/8=95
K:G
"G"G2 A B2 c|dBd "Em"efg|"G"G2 A B2 c|dBG "D"AFD|
"C"E2 C CEG|"D"F2 D D2 c|"G"BdB "D7"cAF|"G"G3 "D"A3:|
K:D
|:"D"d2 e f2 g|afd "A"ecA|"D"faf "Em"ege|"D"fdf "A"ecA|
"G"B2 G GBd|"A"c2 A A2 g|"D"faf "A7"ge c|1"D"d3-d2 "A"A:|2 "G"d3 "C"=c3|
K:G
|:"G"B2 g gdB|B2 g gdB|"D"A2 A "C"ABc|"G"BAG "D"AFD|
"C"E2 C CEG|"D"F2 D "G"D2 c|BdB "D7"cAF|"G"G3 G3:|

